X:41
T: Graf und Nonne (Die Nonne)
N: Q0155n
O: Osteuropa, Tschechoslowakei, Boehmen, Egerland, Hostau, Muttersdorf
N: Pause in der vierten und letzten Zeile ergaenzt.
R: Ballade, Standesunterschied, vergebliche Werbung, Liebe, Klage, Tod
M: 6/8
L: 1/8
K: E
B, | GFEEDE | FF2z2
B, | AGFFEF | G3z2
B, | GFEEDE | C2AAG
F | EDEGFF | E3z2
B, | GFEEDE | C2AAG
F | EDEGFF | E3z2

